icons/body-scan-fill.svg

<svg viewBox="0 0 24 24" fill="currentColor" xmlns="http://www.w3.org/2000/svg"><path d="M4 16V20H8V22H2V16H4ZM22 16V22H16V20H20V16H22ZM7.5 7C7.5 9.48528 9.51472 11.5 12 11.5C14.4853 11.5 16.5 9.48528 16.5 7H18.5C18.5 9.50729 17.0804 11.683 15.0011 12.7672L15 19H9L8.99992 12.7677C6.92007 11.6837 5.5 9.50769 5.5 7H7.5ZM12 5C13.3807 5 14.5 6.11929 14.5 7.5C14.5 8.88071 13.3807 10 12 10C10.6193 10 9.5 8.88071 9.5 7.5C9.5 6.11929 10.6193 5 12 5ZM8 2V4L4 3.999V8H2V2H8ZM22 2V8H20V4H16V2H22Z"/></svg>

<svg xmlns="http://www.w3.org/2000/svg" viewBox="0 0 24 24">
    <g>
        <path fill="none" d="M0 0h24v24H0z"/>
        <path d="M4 16v4h4v2H2v-6h2zm18 0v6h-6v-2h4v-4h2zM7.5 7a4.5 4.5 0 0 0 9 0h2a6.5 6.5 0 0 1-3.499 5.767L15 19H9v-6.232A6.5 6.5 0 0 1 5.5 7h2zM12 5a2.5 2.5 0 1 1 0 5 2.5 2.5 0 0 1 0-5zM8 2v2l-4-.001V8H2V2h6zm14 0v6h-2V4h-4V2h6z"/>
    </g>
</svg>
